X:1
T:Och jungfrun gick åt lunden
T:August Söderman (1832-1876)
T:Och jungfrun gick åt lunden
T:©PA Aglert Edition may be freely distributed, duplicated, performed and recorded
T:©PA Aglert Edition may be freely distributed, duplicated, performed and recorded
C:August Söderman (1832-1876)
Z:©PA Aglert
Z:Edition may be freely distributed, duplicated, performed and recorded
%%score [ 1 2 3 4 ]
L:1/8
Q:1/4=108
M:4/4
K:F
V:1 treble nm="S"
V:2 treble nm="A"
V:3 treble-8 nm="T"
V:4 bass nm="B"
V:1
"^Moderato"!p! c2 |!<(! A3 B!<)! c2 fe |!>(! d4!>)! c2 c2 | (F4 G4 | A2) A>B c2 c2 | %5
w: Och|jung- frun gick sig åt|lun- den i|ro- *|* sen- de- skog. Hon|
 A3!<(! B (c2!<)!!f! a)g |!>(! f4 d2!>)! d2 | !tenuto!c4 f z f2 | !tenuto!c4 A2!p! A2 | %9
w: skul- le tvät- * ta|tvin- ne. Här|sjun- ger, här|sjun- ger en|
 G3 A!<(! B2 B!<)!d |!>(! d4!>)! G2 c2 | A3!<(! B (c2!<)! f)e |!>(! d4!>)! c2 c2 | (F4 G4 | %14
w: näk- ter- gal för vår|jung- fru. Hon|såg den sol _ upp-|rin- na, i|ro- *|
 A2) A>B c2 c2 | A3!<(! B c2!<)!!f! ag | f4!>(! d2!>)! d2 | !tenuto!c4 f z f2 | !tenuto!c4 A2 A2 | %19
w: * sen- de- skog. Hon|såg de rid- da- re|glim- ma. Här|sjun- ger, här|sjun- ger en|
!p! G3 A!<(! B2!<)! Bd |!>(! G4!>)! F2 z2 |] %21
w: näk- ter- gal för vår|jung- fru!|
V:2
!p! A2 |!<(! F3 G!<)! A2 dc |!>(! B4!>)! A2 c2 | (F4- F2 E2 | F2) F>F F2 A2 | %5
w: Och|jung- frun gick sig åt|lun- den i|ro- * *|* sen- de- skog. Hon|
 F3!<(! G!<)! (A2!f! f)e |!>(! d4!>)! B2 F2 | !tenuto!F4 A z A2 | !tenuto!F4 C2!p! F2 | %9
w: skul- le tvät- * ta|tvin- ne. Här|sjun- ger, här|sjun- ger en|
 D3 D!<(! D2 D!<)!G |!>(! G4!>)! E2 A2 | F3!<(! G!<)! (A2 d)c |!>(! B4!>)! A2 c2 | (F4- F2 E2 | %14
w: näk- ter- gal för vår|jung- fru. Hon|såg den sol _ upp-|rin- na, i|ro- * *|
 F2) F>F F2 A2 | F3!<(! G!<)! A2!f! fe | d4!>(! B2!>)! F2 | !tenuto!F4 A z A2 | !tenuto!F4 C2 F2 | %19
w: * sen- de- skog. Hon|såg de rid- da- re|glim- ma. Här|sjun- ger, här|sjun- ger en|
!p! D3 D!<(! D2 D!<)!G |!>(! E4!>)! F2 z2 |] %21
w: näk- ter- gal för vår|jung- fru!|
V:3
!p! c2 |!<(! A3 B!<)! c2 fe |!>(! d4!>)! c2 c2 | c8- | c2 c>B A2 c2 | A3!<(! B!<)! (c2!f! a)g | %6
w: Och|jung- frun gick sig åt|lun- den i|ro-|* sen- de- skog. Hon|skul- le tvät- * ta|
!>(! f4!>)! d2 B2 | !tenuto!A4 c z c2 | !tenuto!A4 F2!p! A2 | B3 A!<(! G2 G!<)!B | %10
w: tvin- ne. Här|sjun- ger, här|sjun- ger en|näk- ter- gal för vår|
!>(! B4!>)! B2 c2 | A3!<(! B (c2!<)! f)e |!>(! d4!>)! c2 c2 | c8- | c2 c>B A2 c2 | %15
w: jung- fru. Hon|såg den sol _ upp-|rin- na, i|ro-|* sen- de- skog. Hon|
 A3!<(! B!<)! c2!f! ag | f4!>(! d2!>)! B2 | !tenuto!A4 c z c2 | !tenuto!A4 F2 A2 | %19
w: såg de rid- da- re|glim- ma. Här|sjun- ger, här|sjun- ger en|
!p! B3 A!<(! G2 G!<)!B |!>(! B4!>)! A2 z2 |] %21
w: näk- ter- gal för vår|jung- fru!|
V:4
!p! A,2 |!<(! F,3 G,!<)! A,2 DC |!>(! B,4!>)! A,2 C2 | (A,4 C4 | F,2) F,>F, F,2 A,2 | %5
w: Och|jung- frun gick sig åt|lun- den i|ro- *|* sen- de- skog. Hon|
 F,3!<(! G,!<)! (A,2!f! F)E |!>(! D4!>)! B,2 B,,2 | !tenuto!C,4 C, z C,2 | !tenuto!C,4 C,2!p! C,2 | %9
w: skul- le tvät- * ta|tvin- ne. Här|sjun- ger, här|sjun- ger en|
 C,3 C,!<(! C,2 C,!<)!C, |!>(! C,4!>)! C,2 A,2 | F,3!<(! G, (A,2!<)! D)C |!>(! B,4!>)! A,2 C2 | %13
w: näk- ter- gal för vår|jung- fru. Hon|såg den sol _ upp-|rin- na, i|
 (A,4 C4 | F,2) F,>F, F,2 A,2 | F,3!<(! G,!<)! A,2!f! FE | D4!>(! B,2!>)! B,,2 | %17
w: ro- *|* sen- de- skog. Hon|såg de rid- da- re|glim- ma. Här|
 !tenuto!C,4 C, z C,2 | !tenuto!C,4 C,2 C,2 |!p! C,3 C,!<(! C,2!<)! C,C, |!>(! C,4!>)! F,2 z2 |] %21
w: sjun- ger, här|sjun- ger en|näk- ter- gal för vår|jung- fru!|

